; generated by Slic3r 1.3.0-dev on 2016-12-13 at 11:17:53

; external perimeters extrusion width = 0.40mm
; perimeters extrusion width = 0.48mm
; infill extrusion width = 0.48mm
; solid infill extrusion width = 0.48mm
; top infill extrusion width = 0.48mm

M107
M190 S65 ; set bed temperature and wait for it to be reached
M104 S215 ; set temperature
G28 ; home all axes
G1 Z5 F5000 ; lift nozzle

M109 S215 ; set temperature and wait for it to be reached
G21 ; set units to millimeters
G90 ; use absolute coordinates
M82 ; use absolute distances for extrusion
G92 E0
G1 Z0.400 F7800.000
G1 E-2.00000 F2400.00000
G92 E0
G1 X38.129 Y20.806 F7800.000
G1 E2.00000 F2400.00000
G1 F1800
G1 X38.947 Y20.048 E2.13240
G1 X39.298 Y19.762 E2.18626
G1 X39.803 Y19.391 E2.26062
G1 X40.583 Y18.891 E2.37065
G1 X41.522 Y18.398 E2.49664
G1 X41.971 Y18.197 E2.55504
G1 X42.519 Y17.985 E2.62488
G1 X43.438 Y17.693 E2.73937
G1 X44.437 Y17.470 E2.86094
G1 X44.959 Y17.388 E2.92371
G1 X45.732 Y17.311 E3.01587
G1 X46.500 Y17.286 E3.10718
G1 X73.727 Y17.290 E6.34083
G1 X74.283 Y17.312 E6.40686
G1 X75.041 Y17.388 E6.49735
G1 X76.008 Y17.559 E6.61399
G1 X76.563 Y17.693 E6.68180
G1 X77.051 Y17.839 E6.74225
G1 X77.773 Y18.095 E6.83331
G1 X78.193 Y18.269 E6.88729
G1 X78.734 Y18.520 E6.95811
G1 X79.160 Y18.746 E7.01539
G1 X80.086 Y19.313 E7.14436
G1 X80.701 Y19.761 E7.23473
G1 X81.053 Y20.048 E7.28868
G1 X81.859 Y20.794 E7.41915
G1 X110.943 Y50.882 E12.38908
G1 X111.384 Y51.365 E12.46669
G1 X111.656 Y51.695 E12.51747
G1 X112.113 Y52.309 E12.60839
G1 X112.530 Y52.952 E12.69945
G1 X112.905 Y53.622 E12.79065
G1 X113.105 Y54.028 E12.84434
G1 X113.384 Y54.672 E12.92776
G1 X113.647 Y55.402 E13.01990
G1 X113.872 Y56.195 E13.11770
G1 X114.082 Y57.253 E13.24587
G1 X114.171 Y58.014 E13.33686
G1 X114.211 Y58.781 E13.42802
G1 X114.200 Y61.547 E13.75659
G1 X114.137 Y62.330 E13.84982
G1 X114.024 Y63.094 E13.94163
G1 X113.860 Y63.854 E14.03396
G1 X113.647 Y64.598 E14.12585
G1 X113.385 Y65.327 E14.21789
G1 X113.073 Y66.041 E14.31041
G1 X112.717 Y66.728 E14.40230
G1 X112.365 Y67.314 E14.48341
G1 X112.113 Y67.691 E14.53734
G1 X111.871 Y68.029 E14.58669
G1 X111.457 Y68.547 E14.66538
G1 X110.871 Y69.194 E14.76915
G1 X81.860 Y99.205 E19.72643
G1 X81.297 Y99.741 E19.81880
G1 X80.451 Y100.427 E19.94819
G1 X80.072 Y100.696 E20.00338
G1 X79.554 Y101.026 E20.07629
G1 X78.733 Y101.480 E20.18770
G1 X77.773 Y101.905 E20.31240
G1 X77.304 Y102.079 E20.37186
G1 X76.564 Y102.306 E20.46379
G1 X75.822 Y102.482 E20.55437
G1 X75.254 Y102.581 E20.62276
G1 X74.804 Y102.640 E20.67670
G1 X74.039 Y102.700 E20.76779
G1 X73.500 Y102.714 E20.83188
G1 X46.500 Y102.714 E24.03855
G1 X45.731 Y102.689 E24.12991
G1 X44.961 Y102.613 E24.22180
G1 X44.192 Y102.484 E24.31435
G1 X43.687 Y102.370 E24.37588
G1 X42.949 Y102.162 E24.46693
G1 X42.519 Y102.015 E24.52088
G1 X41.959 Y101.798 E24.59229
G1 X41.266 Y101.480 E24.68283
G1 X40.446 Y101.027 E24.79409
G1 X39.928 Y100.696 E24.86710
G1 X39.549 Y100.427 E24.92232
G1 X38.703 Y99.742 E25.05159
G1 X38.140 Y99.205 E25.14402
G1 X9.056 Y69.117 E30.11386
G1 X8.616 Y68.634 E30.19151
G1 X8.345 Y68.306 E30.24209
G1 X7.887 Y67.691 E30.33315
G1 X7.469 Y67.048 E30.42421
G1 X7.095 Y66.378 E30.51529
G1 X6.895 Y65.971 E30.56922
G1 X6.616 Y65.328 E30.65243
G1 X6.353 Y64.598 E30.74455
G1 X6.128 Y63.805 E30.84243
G1 X5.918 Y62.747 E30.97061
G1 X5.829 Y61.985 E31.06166
G1 X5.789 Y61.220 E31.15271
G1 X5.800 Y58.453 E31.48135
G1 X5.862 Y57.674 E31.57407
G1 X5.975 Y56.908 E31.66613
G1 X6.139 Y56.148 E31.75839
G1 X6.353 Y55.402 E31.85054
G1 X6.616 Y54.671 E31.94282
G1 X6.926 Y53.960 E32.03497
G1 X7.283 Y53.271 E32.12717
G1 X7.635 Y52.687 E32.20809
G1 X7.887 Y52.309 E32.26203
G1 X8.130 Y51.971 E32.31146
G1 X8.543 Y51.453 E32.39025
G1 X9.129 Y50.806 E32.49388
G1 X38.088 Y20.849 E37.44227
G1 E35.44227 F2400.00000
G92 E0
G1 X21.715 Y58.148 F7800.000
G1 E2.00000 F2400.00000
G1 F1800
G1 X21.946 Y58.713 E2.07245
G1 X22.037 Y59.038 E2.11252
G1 X22.139 Y59.691 E2.19103
G1 X22.139 Y60.301 E2.26348
G1 X22.101 Y60.636 E2.30355
G1 X21.949 Y61.279 E2.38206
G1 X21.718 Y61.845 E2.45459
G1 X21.546 Y62.156 E2.49678
G1 X21.364 Y62.430 E2.53592
G1 X20.972 Y62.898 E2.60837
G1 X20.474 Y63.332 E2.68688
G1 X20.195 Y63.522 E2.72695
G1 X19.656 Y63.807 E2.79940
G1 X19.030 Y64.021 E2.87792
G1 X18.700 Y64.091 E2.91799
G1 X18.093 Y64.150 E2.99044
G1 X17.426 Y64.111 E3.06979
G1 X16.830 Y63.982 E3.14224
G1 X16.510 Y63.874 E3.18231
G1 X15.914 Y63.589 E3.26083
G1 X15.411 Y63.244 E3.33328
G1 X15.156 Y63.023 E3.37335
G1 X14.716 Y62.538 E3.45101
G1 X14.521 Y62.263 E3.49108
G1 X14.226 Y61.729 E3.56353
G1 X14.000 Y61.108 E3.64204
G1 X13.923 Y60.779 E3.68211
G1 X13.854 Y60.181 E3.75364
G1 X13.854 Y59.819 E3.79666
G1 X13.924 Y59.212 E3.86919
G1 X14.102 Y58.575 E3.94770
G1 X14.230 Y58.264 E3.98778
G1 X14.525 Y57.729 E4.06023
G1 X14.934 Y57.201 E4.13958
G1 X15.378 Y56.783 E4.21203
G1 X15.648 Y56.580 E4.25210
G1 X16.221 Y56.250 E4.33061
G1 X16.790 Y56.030 E4.40306
G1 X17.116 Y55.945 E4.44313
G1 X17.764 Y55.856 E4.52080
G1 X18.101 Y55.851 E4.56087
G1 X18.709 Y55.910 E4.63332
G1 X19.356 Y56.077 E4.71268
G1 X19.916 Y56.318 E4.78513
G1 X20.208 Y56.486 E4.82520
G1 X20.733 Y56.876 E4.90286
G1 X20.978 Y57.109 E4.94293
G1 X21.370 Y57.576 E5.01538
G1 X21.684 Y58.097 E5.08761
G1 X21.715 Y58.148 F7800.000
G1 X22.230 Y57.840 F7800.000
G1 X22.230 Y57.840 F7800.000
G1 X23.982 Y56.960 F7800.000
G1 X24.046 Y57.000 F7800.000
G1 X24.124 Y57.049 F7800.000
G1 X24.429 Y57.245 F7800.000
G1 X24.517 Y57.303 F7800.000
G1 X24.581 Y57.346 F7800.000
G1 X24.673 Y57.409 F7800.000
G1 X24.978 Y57.622 F7800.000
G1 X25.081 Y57.696 F7800.000
G1 X25.145 Y57.743 F7800.000
G1 X25.252 Y57.823 F7800.000
G1 X25.557 Y58.054 F7800.000
G1 X25.677 Y58.148 F7800.000
G1 X25.741 Y58.198 F7800.000
G1 X25.867 Y58.300 F7800.000
G1 X26.172 Y58.550 F7800.000
G1 X26.312 Y58.668 F7800.000
G1 X26.375 Y58.722 F7800.000
G1 X26.522 Y58.851 F7800.000
G1 X26.827 Y59.122 F7800.000
G1 X26.989 Y59.269 F7800.000
G1 X27.053 Y59.328 F7800.000
G1 X27.224 Y59.490 F7800.000
G1 X27.529 Y59.783 F7800.000
G1 X27.718 Y59.968 F7800.000
G1 X27.750 Y60.000 F7800.000
G1 X28.510 Y60.000 F7800.000
G1 X28.510 Y60.000 F7800.000
G1 X28.614 Y60.000 F7800.000
G1 X28.614 Y60.000 F7800.000
G1 X29.182 Y60.000 F7800.000
G1 X29.182 Y60.000 F7800.000
G1 X29.390 Y60.000 F7800.000
G1 X29.390 Y60.000 F7800.000
G1 X29.969 Y60.000 F7800.000
G1 X29.970 Y60.000 F7800.000
G1 X30.180 Y60.000 F7800.000
G1 X30.180 Y60.000 F7800.000
G1 X30.761 Y60.000 F7800.000
G1 X30.761 Y60.000 F7800.000
G1 X30.976 Y60.000 F7800.000
G1 X30.976 Y60.000 F7800.000
G1 X31.561 Y60.000 F7800.000
G1 X31.561 Y60.000 F7800.000
G1 X31.781 Y60.000 F7800.000
G1 X31.781 Y60.000 F7800.000
G1 X32.370 Y60.000 F7800.000
G1 X32.370 Y60.000 F7800.000
G1 X32.599 Y60.000 F7800.000
G1 X32.599 Y60.000 F7800.000
G1 X33.193 Y60.000 F7800.000
G1 X33.193 Y60.000 F7800.000
G1 X33.431 Y60.000 F7800.000
G1 X33.431 Y60.000 F7800.000
G1 X34.032 Y60.000 F7800.000
G1 X34.032 Y60.000 F7800.000
G1 X34.283 Y60.000 F7800.000
G1 X34.283 Y60.000 F7800.000
G1 X34.891 Y60.000 F7800.000
G1 X34.891 Y60.000 F7800.000
G1 X35.157 Y60.000 F7800.000
G1 X35.157 Y60.000 F7800.000
G1 X35.773 Y60.000 F7800.000
G1 X35.773 Y60.000 F7800.000
G1 X36.057 Y60.000 F7800.000
G1 X36.057 Y60.000 F7800.000
G1 X36.683 Y60.000 F7800.000
G1 X36.683 Y60.000 F7800.000
G1 X36.988 Y60.000 F7800.000
G1 X36.988 Y60.000 F7800.000
G1 X37.626 Y60.000 F7800.000
G1 X37.626 Y60.000 F7800.000
G1 X37.955 Y60.000 F7800.000
G1 X37.955 Y60.000 F7800.000
G1 X38.373 Y60.000 F7800.000
G1 X38.473 Y59.827 F7800.000
G1 X38.473 Y59.827 F7800.000
G1 X38.496 Y59.788 F7800.000
G1 X38.531 Y59.729 F7800.000
G1 X38.671 Y59.487 F7800.000
G1 X38.871 Y59.135 F7800.000
G1 X39.005 Y58.903 F7800.000
G1 X39.035 Y58.853 F7800.000
G1 X39.164 Y58.630 F7800.000
G1 X39.367 Y58.273 F7800.000
G1 X39.491 Y58.060 F7800.000
G1 X39.516 Y58.017 F7800.000
G1 X39.635 Y57.811 F7800.000
G1 X39.841 Y57.449 F7800.000
G1 X39.955 Y57.253 F7800.000
G1 X39.978 Y57.215 F7800.000
G1 X40.088 Y57.024 F7800.000
G1 X40.296 Y56.658 F7800.000
G1 X40.401 Y56.477 F7800.000
G1 X40.422 Y56.442 F7800.000
G1 X40.524 Y56.265 F7800.000
G1 X40.735 Y55.894 F7800.000
G1 X40.832 Y55.727 F7800.000
G1 X40.851 Y55.694 F7800.000
G1 X40.946 Y55.531 F7800.000
G1 X41.160 Y55.155 F7800.000
G1 X41.249 Y55.000 F7800.000
G1 X41.268 Y54.968 F7800.000
G1 X41.356 Y54.817 F7800.000
G1 X41.572 Y54.436 F7800.000
G1 X41.655 Y54.293 F7800.000
G1 X41.674 Y54.261 F7800.000
G1 X41.756 Y54.120 F7800.000
G1 X41.950 Y53.778 F7800.000
G1 X41.950 Y53.777 F7800.000
G1 X41.975 Y53.734 F7800.000
G1 X42.052 Y53.602 F7800.000
G1 X42.071 Y53.568 F7800.000
G1 X42.147 Y53.438 F7800.000
G1 X42.369 Y53.047 F7800.000
G1 X42.440 Y52.924 F7800.000
G1 X42.461 Y52.889 F7800.000
G1 X42.531 Y52.767 F7800.000
G1 X42.756 Y52.372 F7800.000
G1 X42.822 Y52.258 F7800.000
G1 X42.845 Y52.219 F7800.000
G1 X42.910 Y52.106 F7800.000
G1 X43.138 Y51.705 F7800.000
G1 X43.199 Y51.599 F7800.000
G1 X43.224 Y51.557 F7800.000
G1 X43.285 Y51.452 F7800.000
G1 X43.516 Y51.045 F7800.000
G1 X43.553 Y50.981 F7800.000
G1 X43.572 Y50.947 F7800.000
G1 X43.600 Y50.899 F7800.000
G1 X43.656 Y50.802 F7800.000
G1 X43.891 Y50.389 F7800.000
G1 X43.943 Y50.299 F7800.000
G1 X43.975 Y50.245 F7800.000
G1 X44.027 Y50.155 F7800.000
G1 X44.265 Y49.735 F7800.000
G1 X44.313 Y49.652 F7800.000
G1 X44.349 Y49.591 F7800.000
G1 X44.397 Y49.508 F7800.000
G1 X44.640 Y49.080 F7800.000
G1 X44.664 Y49.038 F7800.000
G1 X44.683 Y49.005 F7800.000
G1 X44.724 Y48.935 F7800.000
G1 X44.767 Y48.859 F7800.000
G1 X45.015 Y48.423 F7800.000
G1 X45.055 Y48.354 F7800.000
G1 X45.101 Y48.275 F7800.000
G1 X45.140 Y48.206 F7800.000
G1 X45.393 Y47.761 F7800.000
G1 X45.429 Y47.699 F7800.000
G1 X45.481 Y47.609 F7800.000
G1 X45.517 Y47.546 F7800.000
G1 X45.775 Y47.092 F7800.000
G1 X45.807 Y47.036 F7800.000
G1 X45.866 Y46.934 F7800.000
G1 X45.898 Y46.878 F7800.000
G1 X46.074 Y46.569 F7800.000
G1 X46.010 Y46.306 F7800.000
G1 X45.966 Y46.109 F7800.000
G1 X45.845 Y45.476 F7800.000
G1 X45.819 Y45.304 F7800.000
G1 X45.749 Y44.694 F7800.000
G1 X45.738 Y44.538 F7800.000
G1 X45.718 Y43.946 F7800.000
G1 X45.719 Y43.801 F7800.000
G1 X45.736 Y43.356 F7800.000
G1 X45.746 Y43.220 F7800.000
G1 X45.755 Y43.080 F7800.000
G1 X45.785 Y42.502 F7800.000
G1 X45.791 Y42.363 F7800.000
G1 X45.809 Y41.785 F7800.000
G1 X45.811 Y41.647 F7800.000
G1 X45.817 Y41.079 F7800.000
G1 X45.818 Y41.010 F7800.000
G1 X45.818 Y39.356 F7800.000
G1 X45.893 Y38.356 F7800.000
G1 X45.818 Y37.356 F7800.000
G1 X45.818 Y35.029 F7800.000
G1 X46.264 Y34.777 F7800.000
G1 X46.785 Y34.463 F7800.000
G1 X47.252 Y34.161 F7800.000
G1 X47.555 Y33.953 F7800.000
G1 X47.965 Y33.650 F7800.000
G1 X48.133 Y33.520 F7800.000
G1 X48.329 Y33.356 F7800.000
G1 X48.492 Y33.232 F7800.000
G1 X48.575 Y33.176 F7800.000
G1 X48.887 Y33.022 F7800.000
G1 X48.936 Y33.007 F7800.000
G1 X49.135 Y32.975 F7800.000
G1 X49.237 Y32.972 F7800.000
G1 X49.283 Y32.969 F7800.000
G1 X49.585 Y32.941 F7800.000
G1 X49.636 Y32.935 F7800.000
G1 X49.938 Y32.889 F7800.000
G1 X49.995 Y32.879 F7800.000
G1 X50.297 Y32.814 F7800.000
G1 X50.364 Y32.798 F7800.000
G1 X50.666 Y32.713 F7800.000
G1 X50.745 Y32.689 F7800.000
G1 X51.047 Y32.584 F7800.000
G1 X51.142 Y32.548 F7800.000
G1 X51.444 Y32.423 F7800.000
G1 X51.560 Y32.371 F7800.000
G1 X51.862 Y32.224 F7800.000
G1 X52.003 Y32.150 F7800.000
G1 X52.305 Y31.979 F7800.000
G1 X52.478 Y31.875 F7800.000
G1 X52.780 Y31.680 F7800.000
G1 X52.991 Y31.534 F7800.000
G1 X53.293 Y31.311 F7800.000
G1 X53.552 Y31.108 F7800.000
G1 X53.854 Y30.857 F7800.000
G1 X54.172 Y30.574 F7800.000
G1 X54.475 Y30.290 F7800.000
G1 X54.667 Y30.103 F7800.000
G1 X54.705 Y30.132 F7800.000
G1 X54.836 Y30.232 F7800.000
G1 X54.939 Y30.309 F7800.000
G1 X55.024 Y30.372 F7800.000
G1 X55.219 Y30.511 F7800.000
G1 X55.304 Y30.569 F7800.000
G1 X55.396 Y30.631 F7800.000
G1 X55.527 Y30.718 F7800.000
G1 X55.614 Y30.775 F7800.000
G1 X55.699 Y30.829 F7800.000
G1 X55.864 Y30.931 F7800.000
G1 X55.949 Y30.981 F7800.000
G1 X56.028 Y31.027 F7800.000
G1 X56.159 Y31.101 F7800.000
G1 X56.234 Y31.143 F7800.000
G1 X56.318 Y31.190 F7800.000
G1 X56.461 Y31.264 F7800.000
G1 X56.546 Y31.307 F7800.000
G1 X56.613 Y31.341 F7800.000
G1 X56.744 Y31.404 F7800.000
G1 X58.276 Y30.195 F7800.000
G1 X58.185 Y30.272 F7800.000
G1 F1800
G1 X57.882 Y29.820 E5.15224
G1 X57.695 Y29.299 E5.21802
G1 X57.632 Y28.836 E5.27348
G1 X57.664 Y28.359 E5.33030
G1 X57.763 Y27.973 E5.37756
G1 X57.927 Y27.604 E5.42561
G1 X58.240 Y27.159 E5.49024
G1 X58.652 Y26.802 E5.55487
G1 X59.003 Y26.602 E5.60291
G1 X59.383 Y26.463 E5.65095
G1 X59.921 Y26.379 E5.71558
G1 X60.463 Y26.427 E5.78020
G1 X60.851 Y26.540 E5.82825
G1 X61.215 Y26.717 E5.87629
G1 X61.632 Y27.032 E5.93838
G1 X61.912 Y27.352 E5.98895
G1 X62.174 Y27.805 E6.05104
G1 X62.304 Y28.204 E6.10083
G1 X62.368 Y28.678 E6.15765
G1 X62.337 Y29.144 E6.21311
G1 X62.190 Y29.656 E6.27636
G1 X61.995 Y30.026 E6.32615
G1 X61.698 Y30.402 E6.38296
G1 X61.346 Y30.699 E6.43765
G1 X60.927 Y30.929 E6.49447
G1 X60.549 Y31.054 E6.54173
G1 X60.155 Y31.113 E6.58899
G1 X59.687 Y31.097 E6.64466
G1 X59.278 Y31.007 E6.69445
G1 X58.801 Y30.793 E6.75654
G1 X58.471 Y30.558 E6.80458
G1 X58.228 Y30.315 E6.84550
G1 X58.740 Y29.817 F7800.000
G1 F1800
G1 X58.525 Y29.496 E6.89143
G1 X58.392 Y29.128 E6.93778
G1 X58.350 Y28.812 E6.97568
G1 X58.373 Y28.472 E7.01617
G1 X58.440 Y28.208 E7.04849
G1 X58.551 Y27.957 E7.08109
G1 X58.774 Y27.641 E7.12702
G1 X59.066 Y27.388 E7.17296
G1 X59.305 Y27.252 E7.20555
G1 X59.563 Y27.158 E7.23815
G1 X59.945 Y27.098 E7.28409
G1 X60.330 Y27.132 E7.33002
G1 X60.594 Y27.209 E7.36262
G1 X60.840 Y27.329 E7.39522
G1 X61.143 Y27.557 E7.44024
G1 X61.329 Y27.770 E7.47375
G1 X61.518 Y28.098 E7.51877
G1 X61.605 Y28.364 E7.55200
G1 X61.651 Y28.702 E7.59249
G1 X61.629 Y29.020 E7.63038
G1 X61.524 Y29.388 E7.67582
G1 X61.393 Y29.635 E7.70905
G1 X61.182 Y29.903 E7.74954
G1 X60.940 Y30.107 E7.78716
G1 X60.641 Y30.271 E7.82765
G1 X60.383 Y30.356 E7.85997
G1 X60.114 Y30.397 E7.89229
G1 X59.776 Y30.386 E7.93237
G1 X59.503 Y30.326 E7.96559
G1 X59.158 Y30.170 E8.01062
G1 X58.934 Y30.011 E8.04321
G1 X58.782 Y29.859 E8.06869
G1 X58.740 Y29.817 F7800.000
G1 X58.331 Y30.260 F7800.000
G1 X58.331 Y30.260 F7800.000
G1 X56.894 Y31.474 F7800.000
G1 X56.809 Y31.435 F7800.000
G1 X56.744 Y31.404 F7800.000
G1 X56.613 Y31.341 F7800.000
G1 X56.546 Y31.307 F7800.000
G1 X56.461 Y31.264 F7800.000
G1 X56.318 Y31.190 F7800.000
G1 X56.234 Y31.143 F7800.000
G1 X56.159 Y31.101 F7800.000
G1 X56.028 Y31.027 F7800.000
G1 X55.949 Y30.981 F7800.000
G1 X55.864 Y30.931 F7800.000
G1 X55.699 Y30.829 F7800.000
G1 X55.614 Y30.775 F7800.000
G1 X55.527 Y30.718 F7800.000
G1 X55.396 Y30.631 F7800.000
G1 X55.304 Y30.569 F7800.000
G1 X55.219 Y30.511 F7800.000
G1 X55.024 Y30.372 F7800.000
G1 X54.939 Y30.309 F7800.000
G1 X54.836 Y30.232 F7800.000
G1 X54.705 Y30.132 F7800.000
G1 X54.667 Y30.103 F7800.000
G1 X54.475 Y30.290 F7800.000
G1 X54.172 Y30.574 F7800.000
G1 X53.854 Y30.857 F7800.000
G1 X53.552 Y31.108 F7800.000
G1 X53.293 Y31.311 F7800.000
G1 X52.991 Y31.534 F7800.000
G1 X52.780 Y31.680 F7800.000
G1 X52.478 Y31.875 F7800.000
G1 X52.305 Y31.979 F7800.000
G1 X52.003 Y32.150 F7800.000
G1 X51.862 Y32.224 F7800.000
G1 X51.560 Y32.371 F7800.000
G1 X51.444 Y32.423 F7800.000
G1 X51.142 Y32.548 F7800.000
G1 X51.047 Y32.584 F7800.000
G1 X50.745 Y32.689 F7800.000
G1 X50.666 Y32.713 F7800.000
G1 X50.364 Y32.798 F7800.000
G1 X50.297 Y32.814 F7800.000
G1 X49.995 Y32.879 F7800.000
G1 X49.938 Y32.889 F7800.000
G1 X49.636 Y32.935 F7800.000
G1 X49.585 Y32.941 F7800.000
G1 X49.283 Y32.969 F7800.000
G1 X49.237 Y32.972 F7800.000
G1 X49.135 Y32.975 F7800.000
G1 X48.936 Y33.007 F7800.000
G1 X48.887 Y33.022 F7800.000
G1 X48.575 Y33.176 F7800.000
G1 X48.492 Y33.232 F7800.000
G1 X48.329 Y33.356 F7800.000
G1 X48.133 Y33.520 F7800.000
G1 X47.965 Y33.650 F7800.000
G1 X47.555 Y33.953 F7800.000
G1 X47.252 Y34.161 F7800.000
G1 X46.785 Y34.463 F7800.000
G1 X46.264 Y34.777 F7800.000
G1 X45.818 Y35.029 F7800.000
G1 X45.818 Y37.356 F7800.000
G1 X45.893 Y38.356 F7800.000
